material/.icons/material/emoticon-frown-outline.svg

<svg xmlns="http://www.w3.org/2000/svg" viewBox="0 0 24 24"><path d="M12 2C6.47 2 2 6.5 2 12s4.47 10 10 10c5.5 0 10-4.5 10-10S17.5 2 12 2m0 18c-4.42 0-8-3.58-8-8s3.58-8 8-8 8 3.58 8 8-3.58 8-8 8m3.5-9c.83 0 1.5-.67 1.5-1.5S16.33 8 15.5 8 14 8.67 14 9.5s.67 1.5 1.5 1.5m-7 0c.83 0 1.5-.67 1.5-1.5S9.33 8 8.5 8 7 8.67 7 9.5 7.67 11 8.5 11m3.5 2.5c-2.33 0-4.31 1.46-5.11 3.5h10.22c-.8-2.04-2.78-3.5-5.11-3.5z"/></svg>

<?xml version="1.0" encoding="UTF-8"?><!DOCTYPE svg PUBLIC "-//W3C//DTD SVG 1.1//EN" "http://www.w3.org/Graphics/SVG/1.1/DTD/svg11.dtd"><svg xmlns="http://www.w3.org/2000/svg" xmlns:xlink="http://www.w3.org/1999/xlink" version="1.1" id="mdi-emoticon-frown-outline" width="24" height="24" viewBox="0 0 24 24"><path d="M12 2C6.47 2 2 6.5 2 12S6.47 22 12 22C17.5 22 22 17.5 22 12S17.5 2 12 2M12 20C7.58 20 4 16.42 4 12S7.58 4 12 4 20 7.58 20 12 16.42 20 12 20M15.5 11C16.33 11 17 10.33 17 9.5S16.33 8 15.5 8 14 8.67 14 9.5 14.67 11 15.5 11M8.5 11C9.33 11 10 10.33 10 9.5S9.33 8 8.5 8 7 8.67 7 9.5 7.67 11 8.5 11M12 13.5C9.67 13.5 7.69 14.96 6.89 17H17.11C16.31 14.96 14.33 13.5 12 13.5Z" /></svg>
